T: Jenny Will You Marry Me?
M: 4/4
L: 1/8
K: Dmaj
|:A<FA>B d>gf>e|d2B>G d>GB>G|A2F>A d>ef>a|1 g2f>g e2d>B:|2 g2f>g e2d2||
|:f<aa>f d>fa>f|g2b>g d>gb>g|a2a>f d>ef>a|1 (3gab f>g e2d2:|2 (3gab f>g e2d>B||
